ОкеанВКонцеДороги/svg/ch1/balloon4.svg

<svg xmlns="http://www.w3.org/2000/svg" width="277" height="792" fill="none" viewBox="0 0 277 792"><g fill="#bcd0e9" opacity=".51"><path d="M164.581 225.41c4.226 28.1 6.959 76.152 1.383 128.843-5.576 52.702-19.451 109.923-48.345 156.453-18.305 29.48-24.013 56.914-22.536 82.148 1.475 25.203 10.111 48.124 20.351 68.604 5.12 10.241 10.652 19.89 15.897 28.911 5.255 9.037 10.209 17.42 14.219 25.19 4.012 7.775 7.029 14.845 8.447 21.239 1.414 6.378 1.214 11.984-1.089 16.92-7.889 16.905-15.173 22.856-20.68 23.971-5.382 1.089-9.764-2.352-12.212-6.209l-2.389 1.516c2.739 4.317 8.12 8.892 15.163 7.466 6.92-1.401 14.726-8.498 22.682-25.547 2.648-5.674 2.788-11.961 1.288-18.729-1.497-6.751-4.647-14.078-8.696-21.925-4.051-7.85-9.052-16.313-14.286-25.314-5.243-9.017-10.736-18.599-15.813-28.754-10.156-20.312-18.614-42.84-20.057-67.505-1.442-24.637 4.11-51.494 22.115-80.49 29.205-47.032 43.155-104.721 48.755-157.646 5.601-52.936 2.863-101.229-1.399-129.562z"/><path d="m174.928 224.522 8.334 14.051c-7.188-.516-21.638-.506-21.937 3.658s-10.533-2.5-15.613-6.352l16.947-12.238c-26.288-13.844-70.282-46.523-62.813-150.62 4.591-63.999 127.259-91.394 143.242 3.55 17.477 103.817-45.718 138.973-68.16 147.951"/></g></svg>

<svg width="277" height="792" viewBox="0 0 277 792" fill="none" xmlns="http://www.w3.org/2000/svg">
<g opacity="0.51">
<path d="M164.581 225.41C168.807 253.51 171.54 301.562 165.964 354.253C160.388 406.955 146.513 464.176 117.619 510.706C99.3136 540.186 93.6065 567.62 95.0829 592.854C96.5577 618.057 105.194 640.978 115.434 661.458C120.554 671.699 126.086 681.348 131.331 690.369C136.586 699.406 141.54 707.789 145.55 715.559C149.562 723.334 152.579 730.404 153.997 736.798C155.411 743.176 155.211 748.782 152.908 753.718C145.019 770.623 137.735 776.574 132.228 777.689C126.846 778.778 122.464 775.337 120.016 771.48L117.627 772.996C120.366 777.313 125.747 781.888 132.79 780.462C139.71 779.061 147.516 771.964 155.472 754.915C158.12 749.241 158.26 742.954 156.76 736.186C155.263 729.435 152.113 722.108 148.064 714.261C144.013 706.411 139.012 697.948 133.778 688.947C128.535 679.93 123.042 670.348 117.965 660.193C107.809 639.881 99.351 617.353 97.9078 592.688C96.4664 568.051 102.018 541.194 120.023 512.198C149.228 465.166 163.178 407.477 168.778 354.552C174.379 301.616 171.641 253.323 167.379 224.99L164.581 225.41Z" fill="#BCD0E9"/>
<path d="M174.928 224.522L183.262 238.573C176.074 238.057 161.624 238.067 161.325 242.231C161.027 246.395 150.792 239.731 145.712 235.879L162.659 223.641C136.371 209.797 92.3774 177.118 99.8456 73.021C104.437 9.02216 227.105 -18.3727 243.088 76.5716C260.565 180.388 197.37 215.544 174.928 224.522Z" fill="#BCD0E9"/>
</g>
</svg>
